X: 28618
T: Music For A Found Harmonium
R: reel
M: 4/4
K: Cmajor
C||ECFC E.C2C|ECFC ECB,C|ECFC E.C2C|DCB,C E.C2C|
ECFC ECB,C|ECFC E.C2,C|ECFC ECB,C|DCB,C E.C2C|
|:DCB,C DCB,C|ECB,C ECB,C|FCDC B,CFC|E.C2.C2.!D.C.!C2C:|
[K: Eb]|:!segno!BEDE F.E2E|BEDE D3E|BEDE F.E2E|BEDE D3E:|
|:AECE F.E2E:|:AEDE F.D2E:|[K: C]|:BFDF B,.F2F|BFDF B,.F2F:|
ECFC E.C2C|ECFC ECB,C|ECFC E.C2C|DCB,C E.C2C|
ECFC ECB,C|ECFC E.C2,C|ECFC ECB,C|DCB,C E.C2C|
|:DCB,C DCB,C|EC_B,C ECB,C|FCA,C FCB,C|E.C2.C2.C2C!D.S.!:|

